resources/svg/phonecall-blocked.svg

<svg xmlns="http://www.w3.org/2000/svg" viewBox="0 0 15 15" fill="currentColor"><path d="M0 2.5C0 1.11929 1.11929 0 2.5 0H4.71922C5.40752 0 6.0075 0.468446 6.17444 1.1362L6.76048 3.48035C6.95058 4.24075 6.52319 5.01932 5.7796 5.26718L4.67097 5.63672C4.33156 5.74986 4.12951 6.09803 4.19967 6.44886C4.63885 8.64472 6.35528 10.3612 8.55114 10.8003C8.90197 10.8705 9.25014 10.6684 9.36328 10.329L9.66105 9.43573C9.94971 8.56975 10.9384 8.1602 11.7549 8.56843L14.1708 9.77639C14.679 10.0305 15 10.5499 15 11.118V12.5C15 13.8807 13.8807 15 12.5 15H10.5C4.70101 15 0 10.299 0 4.5V2.5Z" fill="black"/><path fill-rule="evenodd" clip-rule="evenodd" d="M8 3.5C8 1.567 9.567 0 11.5 0C13.433 0 15 1.567 15 3.5C15 5.433 13.433 7 11.5 7C9.567 7 8 5.433 8 3.5ZM11.5 1C10.1193 1 9 2.11929 9 3.5C9 4.00955 9.15244 4.4835 9.41422 4.87872L12.8787 1.41422C12.4835 1.15245 12.0096 1 11.5 1ZM11.5 6C10.9905 6 10.5165 5.84757 10.1213 5.58582L13.5858 2.12133C13.8476 2.51654 14 2.99047 14 3.5C14 4.88071 12.8807 6 11.5 6Z" fill="black"/></svg>

<svg xmlns="http://www.w3.org/2000/svg" viewBox="0 0 15 15" fill="currentColor"><path d="M0 2.5A2.5 2.5 0 012.5 0h2.22a1.5 1.5 0 011.454 1.136L6.76 3.48a1.5 1.5 0 01-.98 1.787l-1.109.37a.71.71 0 00-.471.812A5.547 5.547 0 008.55 10.8a.71.71 0 00.812-.471l.298-.893a1.5 1.5 0 012.094-.868l2.416 1.208a1.5 1.5 0 01.83 1.342V12.5a2.5 2.5 0 01-2.5 2.5h-2C4.701 15 0 10.299 0 4.5v-2z" fill="currentColor"/><path fill-rule="evenodd" clip-rule="evenodd" d="M8 3.5a3.5 3.5 0 117 0 3.5 3.5 0 01-7 0zM11.5 1a2.5 2.5 0 00-2.086 3.879l3.465-3.465A2.488 2.488 0 0011.5 1zm0 5c-.51 0-.983-.152-1.379-.414l3.465-3.465A2.5 2.5 0 0111.5 6z" fill="currentColor"/></svg>
